images/floorball_theme_light.svg

<svg width="50" height="50" viewBox="0 0 50 50" fill="none" xmlns="http://www.w3.org/2000/svg">
<path fill-rule="evenodd" clip-rule="evenodd" d="M36.3536 19.9214C35.6758 20.1102 34.4843 20.8711 33.7059 21.6128C32.3845 22.8716 32.2904 23.124 32.2904 25.4119C32.2904 27.7954 32.336 27.9022 33.9556 29.2969C35.0896 30.274 36.1646 30.816 37.3276 30.9973C38.6918 31.2102 39.4189 31.0868 40.9509 30.3827C42.0825 29.8622 43.1762 29.0031 43.6214 28.2847C44.0495 27.5931 44.375 26.3327 44.375 25.3642C44.375 24.3803 44.0532 23.1518 43.6137 22.4568C43.1949 21.7952 42.309 20.964 41.645 20.6104C40.9806 20.2569 39.7957 19.88 39.0115 19.7732C38.2274 19.6663 37.0314 19.7329 36.3536 19.9214ZM38.2674 30.0947C41.18 30.0947 43.541 27.8719 43.541 25.1299C43.541 22.388 41.18 20.1652 38.2674 20.1652C35.3549 20.1652 32.9938 22.388 32.9938 25.1299C32.9938 27.8719 35.3549 30.0947 38.2674 30.0947Z" fill="#0086FF"/>
<path fill-rule="evenodd" clip-rule="evenodd" d="M38.2674 31.8959C42.2366 31.8959 45.4542 28.8667 45.4542 25.1299C45.4542 21.3932 42.2366 18.364 38.2674 18.364C34.2983 18.364 31.0806 21.3932 31.0806 25.1299C31.0806 28.8667 34.2983 31.8959 38.2674 31.8959ZM33.7059 21.6128C34.4843 20.8711 35.6758 20.1102 36.3536 19.9214C37.0314 19.7329 38.2274 19.6663 39.0115 19.7732C39.7957 19.88 40.9806 20.2569 41.645 20.6104C42.309 20.964 43.1949 21.7952 43.6137 22.4568C44.0532 23.1518 44.375 24.3803 44.375 25.3642C44.375 26.3327 44.0495 27.5931 43.6214 28.2847C43.1762 29.0031 42.0825 29.8622 40.9509 30.3827C39.4189 31.0868 38.6918 31.2102 37.3276 30.9973C36.1646 30.816 35.0896 30.274 33.9556 29.2969C32.336 27.9022 32.2904 27.7954 32.2904 25.4119C32.2904 23.124 32.3845 22.8716 33.7059 21.6128Z" fill="#0086FF"/>
<path d="M4.79353 0.917545C4.5141 1.2286 4.29006 1.86311 4.29576 2.32799C4.30146 2.79288 5.95405 9.35089 7.96836 16.9015C9.98267 24.4521 11.9526 31.8993 12.3457 33.4507C12.7383 35.0022 13.2019 36.4187 13.3754 36.5985C13.5522 36.782 14.5979 36.7245 15.76 36.4668C16.8985 36.2148 17.8297 35.8797 17.8297 35.7225C17.8297 35.5653 15.8122 27.8676 13.3461 18.6166C10.8796 9.36556 8.67388 1.47194 8.44332 1.07439C8.159 0.583551 7.58913 0.352237 6.66324 0.352237C5.91454 0.352237 5.07338 0.606494 4.79353 0.917545Z" fill="#0086FF"/>
<path d="M41.3297 22.0303C41.4703 22.3688 41.3986 22.9187 41.1704 23.2526C40.9423 23.5866 40.4291 23.8597 40.0299 23.8597C39.6307 23.8597 39.1174 23.5866 38.8893 23.2526C38.6612 22.9187 38.5895 22.3688 38.7301 22.0303C38.8751 21.682 39.4392 21.4149 40.0299 21.4149C40.6205 21.4149 41.1847 21.682 41.3297 22.0303Z" fill="#0069B7"/>
<path d="M36.9748 23.47C36.9748 23.7581 36.6872 24.2595 36.3357 24.5845C35.853 25.0298 35.5035 25.0795 34.91 24.7861C34.4774 24.5724 34.1234 24.0733 34.1234 23.6773C34.1234 23.2809 34.4395 22.7934 34.8257 22.5937C35.2713 22.3635 35.7927 22.3616 36.2514 22.5884C36.6493 22.7851 36.9748 23.1816 36.9748 23.47Z" fill="#0069B7"/>
<path d="M42.2487 26.0923C42.6149 26.5001 42.6206 26.8288 42.2711 27.4313C42.0165 27.871 41.5191 28.1779 41.1664 28.1136C40.8132 28.0497 40.3382 27.724 40.1105 27.39C39.8828 27.056 39.8116 26.5061 39.9521 26.1676C40.093 25.8291 40.5578 25.5522 40.9855 25.5522C41.4132 25.5522 41.9815 25.7952 42.2487 26.0923Z" fill="#0069B7"/>
<path d="M37.937 27.2448C38.0657 27.5551 38.0714 28.0497 37.9488 28.3442C37.8266 28.6383 37.4424 28.9798 37.0954 29.1028C36.7483 29.2258 36.2127 29.1336 35.9047 28.8978C35.5972 28.662 35.3454 28.1794 35.3454 27.8255C35.3454 27.4716 35.4677 27.0691 35.6171 26.9315C35.7662 26.7934 36.2966 26.6806 36.7956 26.6806C37.2942 26.6806 37.8078 26.9345 37.937 27.2448Z" fill="#0069B7"/>
<path d="M34.7841 37.5136C34.6574 37.7032 33.1649 38.4836 31.468 39.2475C29.771 40.0118 27.0198 40.9585 25.3541 41.3519C22.9846 41.9116 22.0551 41.98 21.0836 41.6674C20.4005 41.4474 19.5723 40.7866 19.2432 40.1987C18.9137 39.6108 18.6444 38.8778 18.6444 38.5694C18.6444 38.2609 18.4721 37.9104 18.2619 37.79C18.0513 37.6701 17.16 37.678 16.2814 37.8077C15.4024 37.9375 14.4647 38.1684 14.1974 38.3207C13.8353 38.5276 14.0312 39.7835 14.9698 43.2648C16.0223 47.1712 16.4252 48.0998 17.4423 48.9657C17.8055 49.2749 18.1016 49.4937 18.4245 49.6478H24.922C25.6701 49.5318 26.4035 49.3947 27.0316 49.2481C28.8039 48.8344 31.5368 47.9125 33.1051 47.1994C34.6733 46.4863 36.5931 45.4083 37.3712 44.8039L38.7859 43.7053L37.9724 40.5526C37.2249 37.6543 37.0726 37.3906 36.0872 37.2845C35.4974 37.221 34.9112 37.324 34.7841 37.5136Z" fill="#0069B7"/>
</svg>

<svg width="50" height="50" fill="none" xmlns="http://www.w3.org/2000/svg"><path fill-rule="evenodd" clip-rule="evenodd" d="M36.354 19.921c-.678.19-1.87.95-2.648 1.692-1.322 1.259-1.416 1.511-1.416 3.799 0 2.383.046 2.49 1.666 3.885 1.134.977 2.209 1.519 3.372 1.7 1.364.213 2.09.09 3.623-.614 1.132-.52 2.225-1.38 2.67-2.098.428-.692.754-1.952.754-2.92 0-.985-.322-2.213-.761-2.908-.42-.662-1.305-1.493-1.969-1.847-.664-.353-1.85-.73-2.634-.837-.784-.107-1.98-.04-2.657.148Zm1.913 10.174c2.913 0 5.274-2.223 5.274-4.965s-2.361-4.965-5.274-4.965c-2.912 0-5.273 2.223-5.273 4.965s2.36 4.965 5.273 4.965Z" fill="#0086FF"/><path fill-rule="evenodd" clip-rule="evenodd" d="M38.267 31.896c3.97 0 7.187-3.03 7.187-6.766 0-3.737-3.217-6.766-7.187-6.766-3.969 0-7.186 3.03-7.186 6.766 0 3.737 3.217 6.766 7.186 6.766Zm-4.561-10.283c.778-.742 1.97-1.503 2.648-1.692.677-.188 1.873-.255 2.657-.148.785.107 1.97.484 2.634.837.664.354 1.55 1.185 1.969 1.847.44.695.761 1.923.761 2.907 0 .969-.325 2.23-.754 2.92-.445.72-1.538 1.578-2.67 2.099-1.532.704-2.26.827-3.623.614-1.163-.181-2.238-.723-3.372-1.7-1.62-1.395-1.666-1.502-1.666-3.885 0-2.288.095-2.54 1.416-3.8Z" fill="#0086FF"/><path d="M4.794.918c-.28.31-.504.945-.498 1.41.005.465 1.658 7.023 3.672 14.573 2.015 7.551 3.985 14.998 4.378 16.55.392 1.551.856 2.968 1.03 3.148.176.183 1.222.126 2.384-.132 1.138-.252 2.07-.587 2.07-.745 0-.157-2.018-7.854-4.484-17.105C10.88 9.366 8.674 1.472 8.443 1.074 8.16.584 7.59.352 6.663.352c-.748 0-1.59.254-1.87.566Z" fill="#0086FF"/><path d="M41.33 22.03c.14.339.069.889-.16 1.223-.228.334-.74.607-1.14.607-.4 0-.913-.273-1.14-.607-.229-.334-.3-.884-.16-1.223.145-.348.71-.615 1.3-.615.59 0 1.155.267 1.3.615Zm-4.355 1.44c0 .288-.288.79-.64 1.114-.482.446-.831.495-1.425.202-.433-.214-.787-.713-.787-1.109s.317-.884.703-1.083a1.57 1.57 0 0 1 1.425-.006c.398.197.724.594.724.882Zm5.274 2.622c.366.408.372.737.022 1.34-.255.439-.752.746-1.105.682-.353-.064-.828-.39-1.055-.724-.228-.334-.3-.884-.159-1.222.141-.339.606-.616 1.034-.616.427 0 .995.243 1.263.54Zm-4.312 1.153c.129.31.134.805.012 1.1-.122.293-.507.635-.854.758s-.882.03-1.19-.205c-.308-.236-.56-.719-.56-1.072 0-.354.123-.757.272-.895.15-.138.68-.25 1.179-.25.498 0 1.012.253 1.141.564Zm-3.153 10.269c-.127.19-1.62.97-3.316 1.733-1.697.765-4.448 1.712-6.114 2.105-2.37.56-3.299.628-4.27.315-.683-.22-1.512-.88-1.84-1.468-.33-.588-.6-1.321-.6-1.63 0-.308-.172-.659-.382-.779-.21-.12-1.102-.112-1.98.018-.88.13-1.817.36-2.085.513-.362.207-.166 1.462.773 4.944 1.052 3.906 1.455 4.835 2.472 5.7.363.31.66.529.982.683h6.498a29.29 29.29 0 0 0 2.11-.4c1.772-.414 4.505-1.335 6.073-2.049 1.568-.713 3.488-1.79 4.266-2.395l1.415-1.099-.814-3.152c-.747-2.899-.9-3.162-1.885-3.268-.59-.064-1.176.039-1.303.229Z" fill="#0069B7"/></svg>
